basket-plus.svg

<svg fill="currentColor" viewBox="0 0 24 24"><path d="M20 15v3h3v2h-3v3h-2v-3h-3v-2h3v-3zm3-5-.04.29L22 13.8a6.005 6.005 0 0 0-9 5.2c0 .7.13 1.37.35 2H5.5c-.78 0-1.46-.45-1.79-1.1L1.1 10.44 1 10c0-.55.45-1 1-1h4.58l4.6-6.57a.997.997 0 0 1 1.65.01L17.42 9H22c.55 0 1 .45 1 1m-9 5c0-1.1-.89-2-2-2s-2 .9-2 2 .9 2 2 2 2-.89 2-2m1-6-3-4.26L9 9z"/></svg>

<svg  viewBox="0 0 24 24" fill="currentColor"><path  d="M20 15V18H23V20H20V23H18V20H15V18H18V15H20M23 10L22.96 10.29L22 13.8C21.11 13.29 20.09 13 19 13C15.69 13 13 15.69 13 19C13 19.7 13.13 20.37 13.35 21H5.5C4.72 21 4.04 20.55 3.71 19.9L1.1 10.44L1 10C1 9.45 1.45 9 2 9H6.58L11.18 2.43C11.36 2.17 11.66 2 12 2S12.65 2.17 12.83 2.44L17.42 9H22C22.55 9 23 9.45 23 10M14 15C14 13.9 13.11 13 12 13S10 13.9 10 15 10.9 17 12 17 14 16.11 14 15M15 9L12 4.74L9 9H15Z"/></svg>
